packages/katcn/src/icons/svg/brokenFile.svg

<svg width="24" height="25" viewBox="0 0 24 25" fill="none" xmlns="http://www.w3.org/2000/svg">
<path d="M16.7 22.2881H7.3C5.5 22.2881 4 20.7881 4 18.7881V15.4881C4 15.1881 4.1 14.9881 4.3 14.7881L6.6 12.2881C6.8 12.0881 7.1 11.9881 7.3 11.9881C7.6 11.9881 7.8 12.0881 8 12.2881L9.6 13.9881L11.2 12.2881C11.5 12.1881 11.7 12.0881 12 12.0881C12.3 12.0881 12.5 12.1881 12.7 12.3881L14.3 14.0881L15.9 12.3881C16.1 12.1881 16.4 12.0881 16.6 12.0881C16.9 12.0881 17.1 12.1881 17.3 12.3881L17.9 12.9881V10.3881C17.9 9.78809 17.7 9.18809 17.3 8.78809L13.7 4.88809C13.3 4.48809 12.8 4.28809 12.3 4.28809H7.3C6.6 4.28809 6 4.98809 6 5.78809V11.4881C6 12.0881 5.6 12.4881 5 12.4881C4.4 12.4881 4 12.0881 4 11.4881V5.78809C4 3.78809 5.5 2.28809 7.3 2.28809H12.2C13.3 2.28809 14.4 2.78809 15.1 3.58809L18.7 7.38809C19.6 8.18809 20 9.28809 20 10.3881V15.5881V18.8881C20 20.7881 18.5 22.2881 16.7 22.2881ZM6 15.9881V18.8881C6 19.5881 6.6 20.2881 7.3 20.2881H16.6C17.3 20.2881 17.9 19.5881 17.9 18.7881V15.8881L16.6 14.4881L15.1 16.2881C14.9 16.4881 14.6 16.5881 14.4 16.5881C14.1 16.5881 13.9 16.4881 13.7 16.2881L12 14.5881L10.4 16.2881C10.2 16.4881 9.9 16.5881 9.7 16.5881C9.4 16.5881 9.2 16.4881 9 16.2881L7.4 14.5881L6 15.9881Z" fill="black"/>
</svg>

<svg xmlns="http://www.w3.org/2000/svg" fill="none" viewBox="0 0 24 25"><path fill="#000" d="M16.7 22.288H7.3c-1.8 0-3.3-1.5-3.3-3.5v-3.3c0-.3.1-.5.3-.7l2.3-2.5c.2-.2.5-.3.7-.3.3 0 .5.1.7.3l1.6 1.7 1.6-1.7c.3-.1.5-.2.8-.2s.5.1.7.3l1.6 1.7 1.6-1.7c.2-.2.5-.3.7-.3.3 0 .5.1.7.3l.6.6v-2.6c0-.6-.2-1.2-.6-1.6l-3.6-3.9c-.4-.4-.9-.6-1.4-.6h-5c-.7 0-1.3.7-1.3 1.5v5.7c0 .6-.4 1-1 1s-1-.4-1-1v-5.7c0-2 1.5-3.5 3.3-3.5h4.9c1.1 0 2.2.5 2.9 1.3l3.6 3.8c.9.8 1.3 1.9 1.3 3v8.5c0 1.9-1.5 3.4-3.3 3.4M6 15.988v2.9c0 .7.6 1.4 1.3 1.4h9.3c.7 0 1.3-.7 1.3-1.5v-2.9l-1.3-1.4-1.5 1.8c-.2.2-.5.3-.7.3-.3 0-.5-.1-.7-.3l-1.7-1.7-1.6 1.7c-.2.2-.5.3-.7.3-.3 0-.5-.1-.7-.3l-1.6-1.7z"/></svg>
